X: 14315
T: Gallagher's Frolics
R: jig
M: 6/8
K: Edorian
|:~E3 GFE|~B3 dBA|~B3 BAB|GBG AFD|
~E3 GFE|~B3 dBA|BAG FAF|GED E2B:|
|:~e2f gfe|~g3 bge|dAe fed|fag fed|
e2f gfe|d/e/fe dBA|BAG FAF|GED E2B:|

